X: 314
T: Zhong yangyan
L: 1/8
M: 2/4
K: Bb
c' f' f' d' [I:setbarnb 1]| 
c'2c' d' | 
b g b d' | 
c'4 | 
f' f' f' d' | 
f' a g b | 
f3g | 
d f d c | 
c' f' f' d' | 
c' d' c' b | 
g b f d | 
c4 | 
b d' c' b | 
g b f d | 
c4 | 
b c' f' d' | 
c'3d' | 
c'4 |]

@@@ Tune index: 9188
